assets/logos/icons/coffee.svg

<svg height="24" viewBox="0 0 24 24" width="24" xmlns="http://www.w3.org/2000/svg"><path d="m3.99999995 20h15.99999995c1.1000001 0 2.0000002-.9 2-2h-19.99999995c0 1.1.9 2 2 2zm16.00000005-16.00000004h-2-2-10.00000003v10.00000004c0 1.1.9 2 2 2h8.00000003c1.1 0 2-.9 2-2v-2h2c1.1 0 2.0000001-.9 2-2.00000004v-4c.0000001-1.1-.9-2-2-2zm-4 8.00000004v2h-8.00000002v-8.00000003h8.00000002zm4-2.00000003h-2v-4h2z" fill="#492f5c" fill-rule="evenodd"/></svg>

<svg xmlns="http://www.w3.org/2000/svg" xmlns:xlink="http://www.w3.org/1999/xlink" width="24" height="24" viewBox="0 0 24 24">
  <defs>
    <path id="coffee-a" d="M3.99999995,20 L19.9999999,20 C21.1,20 22.0000001,19.1 21.9999999,18 L1.99999995,18 C1.99999995,19.1 2.89999995,20 3.99999995,20 Z M20,3.99999996 L18,3.99999996 L16,3.99999996 L5.99999997,3.99999996 L5.99999997,14 C5.99999997,15.1 6.89999997,16 7.99999997,16 L16,16 C17.1,16 18,15.1 18,14 L18,12 L20,12 C21.1,12 22.0000001,11.1 22,9.99999996 L22,5.99999996 C22.0000001,4.89999996 21.1,3.99999996 20,3.99999996 Z M16,12 L16,14 L7.99999998,14 L7.99999998,5.99999997 L16,5.99999997 L16,12 Z M20,9.99999997 L18,9.99999997 L18,5.99999997 L20,5.99999997 L20,9.99999997 Z"/>
  </defs>
  <use fill="#492F5C" fill-rule="evenodd" xlink:href="#coffee-a"/>
</svg>
